front/app-eat-easier/assets/procesador.svg

<svg width="72" height="72" viewBox="0 0 82 82" fill="none"
  xmlns="http://www.w3.org/2000/svg">
  <path fill-rule="evenodd" clip-rule="evenodd" d="M71 2H11C6.02944 2 2 6.02944 2 11V71C2 75.9706 6.02944 80 11 80H71C75.9706 80 80 75.9706 80 71V11C80 6.02944 75.9706 2 71 2ZM11 1C5.47715 1 1 5.47715 1 11V71C1 76.5229 5.47715 81 11 81H71C76.5229 81 81 76.5229 81 71V11C81 5.47715 76.5229 1 71 1H11Z" fill="#FF8908" stroke="#77838F" stroke-width="2"/>
  <path d="M58.7095 45.6643V27.1013C58.7095 25.163 57.5589 23.4171 55.7764 22.6535C53.3076 21.5947 50.7199 20.9658 48.0644 20.7597V12.9355H49.9999V11H48.0644H47.0966H33.5482H32.5805H30.6451V12.9355H32.5807V20.7587C29.9243 20.9647 27.3374 21.5947 24.8679 22.6535C23.086 23.4171 21.9355 25.1628 21.9355 27.1013V45.6645C20.6542 48.9344 20 52.373 20 55.8888V68.0967H21.9355V71H27.7419V68.0967H52.9032V71H58.7095V68.0967H60.645V55.8886C60.645 52.3728 59.9909 48.9344 58.7095 45.6643ZM55.0137 24.4322C55.5538 24.6634 55.9961 25.0457 56.3027 25.5162H45.1611V22.6129H46.1492C49.2138 22.6129 52.1966 23.2246 55.0137 24.4322ZM34.516 12.9355H46.1289V20.6774H45.1611H35.4837H34.516V12.9355ZM37.4192 25.5162V22.6129H43.2256V25.5162H37.4192ZM43.2258 27.4515V32.2903H37.4195V27.4515H43.2258ZM25.6293 24.4322C28.4464 23.2244 31.429 22.6129 34.4938 22.6129H35.4837V25.5162H24.3423C24.6488 25.0457 25.0902 24.6634 25.6293 24.4322ZM23.8708 27.4515H35.4837V34.2256H45.1611V27.4515H56.774V44.8707H23.8708V27.4515ZM25.8063 69.0643H23.8708V68.0965H25.8063V69.0643ZM56.7738 69.0643H54.8383V68.0965H56.7738V69.0643ZM58.7097 62.2902H48.0646V64.2257H58.7097V66.1612H52.9032H27.7417H21.9355V64.2257H32.5807V62.2902H21.9355V55.8886C21.9355 52.7715 22.4842 49.7193 23.5672 46.8064H57.079C58.161 49.7193 58.7097 52.7715 58.7097 55.8886V62.2902Z" fill="#77838F"/>
  <path d="M40.3219 48.7419C36.0532 48.7419 32.5801 52.2151 32.5801 56.4838C32.5801 60.7526 36.0532 64.2257 40.3219 64.2257C44.5907 64.2257 48.0638 60.7526 48.0638 56.4838C48.0638 52.2151 44.5907 48.7419 40.3219 48.7419ZM39.3544 62.2034C36.6127 61.7396 34.5156 59.3552 34.5156 56.484C34.5156 53.6126 36.6127 51.2282 39.3544 50.7646V62.2034ZM41.2895 62.2032V50.7644C44.031 51.227 46.1283 53.6116 46.1283 56.4838C46.1283 59.356 44.0312 61.7396 41.2895 62.2032Z" fill="#77838F"/>
  <path d="M34.5173 41H26.7754V42.9355H34.5173V41Z" fill="#77838F"/>
  <path d="M44.193 41H36.4512V42.9355H44.193V41Z" fill="#77838F"/>
  <path d="M53.8708 41H46.1289V42.9355H53.8708V41Z" fill="#77838F"/>
  <path d="M39.3551 38.0967H31.6133V40.0322H39.3551V38.0967Z" fill="#77838F"/>
  <path d="M49.0329 38.0967H41.291V40.0322H49.0329V38.0967Z" fill="#77838F"/>
</svg>

<?xml version="1.0" encoding="utf-8"?>
<!-- Generator: Adobe Illustrator 24.3.0, SVG Export Plug-In . SVG Version: 6.00 Build 0)  -->
<svg version="1.1" id="Capa_1" xmlns="http://www.w3.org/2000/svg" xmlns:xlink="http://www.w3.org/1999/xlink" x="0px" y="0px"
	 viewBox="0 0 82 82" style="enable-background:new 0 0 82 82;" xml:space="preserve">
<style type="text/css">
	.st0{fill-rule:evenodd;clip-rule:evenodd;fill:#FF8908;stroke:#77838F;stroke-width:2;}
	.st1{fill:#77838F;}
</style>
<path class="st0" d="M71,2H11c-5,0-9,4-9,9v60c0,5,4,9,9,9h60c5,0,9-4,9-9V11C80,6,76,2,71,2z M11,1C5.5,1,1,5.5,1,11v60
	c0,5.5,4.5,10,10,10h60c5.5,0,10-4.5,10-10V11c0-5.5-4.5-10-10-10H11z"/>
<path class="st1" d="M58.7,45.7V27.1c0-1.9-1.2-3.7-2.9-4.4c-2.5-1.1-5.1-1.7-7.7-1.9v-7.8H50V11h-1.9h-1H33.5h-1h-1.9v1.9h1.9v7.8
	c-2.7,0.2-5.2,0.8-7.7,1.9c-1.8,0.8-2.9,2.5-2.9,4.4v18.6c-1.3,3.3-1.9,6.7-1.9,10.2v12.2h1.9V71h5.8v-2.9h25.2V71h5.8v-2.9h1.9
	V55.9C60.6,52.4,60,48.9,58.7,45.7z M55,24.4c0.5,0.2,1,0.6,1.3,1.1H45.2v-2.9h1C49.2,22.6,52.2,23.2,55,24.4z M34.5,12.9h11.6v7.7
	h-1h-9.7h-1V12.9z M37.4,25.5v-2.9h5.8v2.9H37.4z M43.2,27.5v4.8h-5.8v-4.8H43.2z M25.6,24.4c2.8-1.2,5.8-1.8,8.9-1.8h1v2.9H24.3
	C24.6,25,25.1,24.7,25.6,24.4z M23.9,27.5h11.6v6.8h9.7v-6.8h11.6v17.4H23.9V27.5z M25.8,69.1h-1.9v-1h1.9V69.1z M56.8,69.1h-1.9v-1
	h1.9V69.1z M58.7,62.3H48.1v1.9h10.6v1.9h-5.8H27.7h-5.8v-1.9h10.6v-1.9H21.9v-6.4c0-3.1,0.5-6.2,1.6-9.1h33.5
	c1.1,2.9,1.6,6,1.6,9.1V62.3z"/>
<path class="st1" d="M40.3,48.7c-4.3,0-7.7,3.5-7.7,7.7c0,4.3,3.5,7.7,7.7,7.7c4.3,0,7.7-3.5,7.7-7.7C48.1,52.2,44.6,48.7,40.3,48.7
	z M39.4,62.2c-2.7-0.5-4.8-2.8-4.8-5.7c0-2.9,2.1-5.3,4.8-5.7V62.2z M41.3,62.2V50.8c2.7,0.5,4.8,2.8,4.8,5.7S44,61.7,41.3,62.2z"/>
<path class="st1" d="M34.5,41h-7.7v1.9h7.7V41z"/>
<path class="st1" d="M44.2,41h-7.7v1.9h7.7V41z"/>
<path class="st1" d="M53.9,41h-7.7v1.9h7.7V41z"/>
<path class="st1" d="M39.4,38.1h-7.7V40h7.7V38.1z"/>
<path class="st1" d="M49,38.1h-7.7V40H49V38.1z"/>
</svg>
